X: 343
T: Kallarash Sirba
R: sirba
Q: 1/4=152
B: German Goldenshteyn "Shpilt klezmorimlach klingen zoln di gesalach" New York 2003 v.3 #43
Z: 2013 John Chambers <jc:trillian.mit.edu>
M: 2/4
L: 1/8
K: C
|:\
(3(GF)E ~D>C | E2 E2 | ~D>^C D>^D | E2 (3(G,C)E |\
(3(GF)E ~D>C | E2 E2 | ~D>^C D>E | C4 :|
K: Cm
|:\
c4- | c>d e>f | g4- | g>G c>d |\
e>d c>e | d>c =B>d | c3 (^f/g/) | (3(ag)^f (3(ed)=B |
c4- | c>d e>^f | g4 | =a4 |\
b>=a g>b | =a>g ^f>a |[1 g4- | g>G =A>=B :|[2 gz z2 | gz z2 |]
